build/assets/fonts/72f763a2ab7a69dcd6f92a1f448ff251.svg

<svg width="100" height="60" viewBox="0 0 100 60" version="1.1" xmlns="http://www.w3.org/2000/svg" xmlns:xlink="http://www.w3.org/1999/xlink"><title>OkPay-light</title><desc>Created with Sketch.</desc><g id="Light-Payment-badges" stroke="none" stroke-width="1" fill="none" fill-rule="evenodd" transform="translate(-450.000000, -689.000000)"><g id="OkPay-light" transform="translate(450.000000, 689.000000)"><rect id="Rectangle" fill="#FFF" x="0" y="0" width="100" height="60" rx="4"/><path d="M86.1174431,22.4053139 L84.9882627,22.4053139 C84.2657583,22.4053139 83.7293555,22.8902628 83.3136077,23.4820292 L82.1966095,25.0740438 C82.1959615,25.0747007 82.1959615,25.0753577 82.1953135,25.0760146 L79.7758634,28.5220292 L77.677944,25.5363942 C77.6683538,25.5214161 77.6632995,25.5077518 77.6524133,25.4922482 L76.2392855,23.4859708 C75.8225009,22.8947299 75.2807846,22.4105693 74.5584098,22.4105693 L73.5116532,22.4105693 C72.7891489,22.4105693 72.3210438,22.894073 72.7392539,23.484 L74.160676,25.4940876 C74.1637863,25.4980292 74.1676743,25.5019708 74.1709142,25.506438 L78.2169387,31.2186131 L78.2169387,37.6854745 C78.2169387,38.4095474 78.8084203,39.0006569 79.5310543,39 L80.0206725,38.9986861 C80.7433065,38.9981606 81.3347881,38.404292 81.3347881,37.680219 L81.3347881,31.2121752 L85.6449317,25.1285693 C85.6582802,25.1110949 85.6756462,25.094146 85.6883468,25.0760146 L86.8150648,23.4800584 C87.2331454,22.8889489 86.8399475,22.4053139 86.1174431,22.4053139" id="Fill-1" fill="#D2642C"/><path d="M38.9536532,30.1809197 L43.0135447,26.2726861 C43.0323363,26.2558686 45.8834746,23.5113285 45.8834746,23.5113285 C46.3965499,23.0166569 45.8444658,22.4053139 45.1414011,22.4053139 L43.5976392,22.4053139 C42.8948336,22.4053139 42.5397373,22.8110365 42.0275692,23.3076788 L39.0223398,26.2209197 C39.0197478,26.2234161 39.0181926,26.2260438 39.0153415,26.2293285 L37.0814921,28.1039562 L37.0814921,25.9783796 L37.0731979,25.9783796 C37.0751419,25.9498686 37.0814921,25.9220146 37.0814921,25.8935036 L37.0814921,23.7225985 C37.0814921,22.9985255 36.5065989,22.4053139 35.8036637,22.4053139 L35.2296778,22.4053139 C34.5270018,22.4053139 33.9518494,22.9985255 33.9518494,23.7225985 L33.9518494,25.8935036 C33.9518494,25.9220146 33.9583292,25.9498686 33.9601436,25.9783796 L33.9518494,25.9783796 L33.9518494,37.6828467 C33.9518494,38.4069197 34.5270018,39 35.2296778,39 L35.8036637,39 C36.5065989,39 37.0814921,38.4069197 37.0814921,37.6828467 L37.0814921,32.4418248 L39.8365989,35.2766277 L39.8398389,35.2766277 L42.5517898,38.0699124 C43.0493135,38.5812701 43.3919685,39 44.0950333,39 L45.6407391,39 C46.3435447,39 46.6430438,38.1430949 46.1455201,37.6316058 L38.9536532,30.1809197" id="Fill-3" fill="#D2642C"/><path d="M69.5185044,31.8052555 L66.4935762,31.8052555 C66.1303152,31.8052555 65.9456392,31.5310511 66.0818459,31.1953577 L67.7524834,27.1004234 C67.8894676,26.7647299 68.1138004,26.7647299 68.251303,27.0997664 L69.9297163,31.1960146 C70.0672189,31.5310511 69.8817653,31.8052555 69.5185044,31.8052555 L69.5185044,31.8052555 Z M75.5947986,37.3574015 L75.6025744,37.3574015 L70.3287461,24.2443358 L70.3261541,24.2443358 L70.0787531,23.6285255 C69.8089317,22.9556934 68.9936357,22.4053139 68.2672434,22.4053139 L67.7430228,22.4053139 C67.0166305,22.4053139 66.2019825,22.9563504 65.9341051,23.6298394 L65.6898144,24.2443358 L65.6808722,24.2443358 L60.4270018,37.2880292 L60.4288161,37.2880292 L60.230662,37.7781022 C59.9588967,38.4504088 60.3322662,39 61.0586585,39 L62.2344939,39 C62.9608862,39 63.3023748,38.4444964 63.5548301,37.7650949 L63.7319895,37.2880292 L63.7391173,37.2880292 L64.8010368,34.4637372 L71.2232259,34.4637372 L71.3101856,34.6905109 L71.374725,34.8254453 L72.3216918,37.3574015 L72.3249317,37.3574015 L72.4770788,37.7650949 C72.7303117,38.4444964 73.1740525,39 73.9010928,39 L74.9407215,39 C75.6677618,39 76.0391874,38.4509343 75.7661261,37.7794161 L75.5947986,37.3574015 L75.5947986,37.3574015 Z" id="Fill-4" fill="#D2642C"/><path d="M59.2485744,28.630292 C59.1270123,28.9376058 58.9499825,29.1936788 58.71269,29.4041606 L58.715282,29.4016642 L58.713338,29.4041606 C58.2375867,29.8236788 57.5292084,30.0525547 56.5751138,30.0525547 L54.8519895,30.0525547 C54.4830263,30.0525547 54.181324,29.7562774 54.181324,29.3939124 L54.181324,25.7002336 C54.181324,25.3385255 54.4830263,25.0417226 54.8519895,25.0417226 L56.5751138,25.0417226 C57.5292084,25.0417226 58.2375867,25.2704672 58.71269,25.6911679 C58.9505009,25.9012555 59.1270123,26.1553577 59.2485744,26.4631971 C59.368711,26.7705109 59.4313065,27.1290657 59.4313065,27.5418832 C59.4313065,27.9587737 59.368711,28.3204818 59.2485744,28.630292 L59.2485744,28.630292 Z M62.3598144,29.7582482 C62.6283398,29.1112993 62.7607881,28.3704088 62.7607881,27.5418832 C62.7607881,26.719927 62.6283398,25.9835036 62.3598144,25.3404964 C62.0925849,24.6974891 61.6885009,24.1477664 61.1532644,23.7069635 C60.090697,22.8325839 58.5431769,22.4053139 56.5751138,22.4053139 L52.3161611,22.4053139 C51.5790123,22.4053139 50.9752189,22.9985255 50.9752189,23.7225985 L50.9752189,37.6828467 C50.9752189,38.4069197 51.5790123,39 52.3161611,39 L52.8403818,39 C53.5776602,39 54.181324,38.4069197 54.181324,37.6828467 L54.181324,32.6888321 L56.5751138,32.6888321 C58.5431769,32.6888321 60.090697,32.2649781 61.1526165,31.392438 C61.6865569,30.9541314 62.0925849,30.4038832 62.3598144,29.7582482 L62.3598144,29.7582482 Z" id="Fill-5" fill="#D2642C"/><path d="M27.9997093,34.6595036 C27.5598564,35.2105401 27.0566305,35.6129781 26.475387,35.8800876 C25.8941436,36.1471971 25.2302172,36.2826569 24.4698704,36.2826569 C23.7077093,36.2826569 23.043394,36.1471971 22.4599475,35.8800876 C21.8742977,35.6129781 21.3688687,35.2065985 20.9249982,34.6549051 C20.4042767,34.0118978 20.0366095,33.2067591 19.8144799,32.2570949 L19.6094571,30.8745109 C19.6031068,30.7914745 19.5987005,30.6164672 19.5963678,30.4284526 C19.5922207,30.2313723 19.5900175,30.0123504 19.5900175,29.8334015 C19.5900175,29.6798102 19.5922207,29.5532847 19.5944238,29.5008613 L19.75331,28.118146 C19.9601471,27.0369635 20.3517898,26.1313139 20.9249982,25.4182774 L20.9225359,25.4227445 L20.9249982,25.4227445 C21.3688687,24.8665839 21.8742977,24.464146 22.4599475,24.1976934 C23.043394,23.9305839 23.7077093,23.7951241 24.4698704,23.7951241 C25.2302172,23.7951241 25.8941436,23.9305839 26.475387,24.1976934 C27.0566305,24.464146 27.5598564,24.8665839 27.9997093,25.4182774 C28.8795447,26.5210073 29.3363748,28.0695328 29.3363748,30.0434891 C29.3363748,32.0120584 28.8795447,33.5569051 27.9997093,34.6595036 L27.9997093,34.6595036 Z M30.4234361,23.5410219 C28.937993,21.9048613 26.9171839,21.0731825 24.4698704,21.077781 C22.0114116,21.0731825 19.9864553,21.9048613 18.4988091,23.5410219 C17.4035832,24.7401898 16.7114046,26.2584964 16.4259019,28.0520584 L16.4259019,28.0566569 L16.2931944,29.4697226 L16.2931944,29.4787883 C16.2842522,29.6583942 16.2737548,29.8418102 16.2737548,30.0434891 C16.2737548,30.3409489 16.2868441,30.6294745 16.3040806,30.9094599 L16.3040806,30.9185255 L16.4847391,32.3317226 L16.4847391,32.3361898 C16.7983643,33.9944234 17.4642347,35.4120876 18.4988091,36.5452993 C19.9864553,38.1729197 22.0114116,39.0045985 24.4698704,39 C26.9171839,39.0045985 28.937993,38.1729197 30.4234361,36.5367591 C31.8994186,34.9129489 32.6423993,32.7166861 32.6423993,30.0434891 C32.6423993,27.365562 31.9020105,25.1641752 30.4234361,23.5410219 L30.4234361,23.5410219 Z" id="Fill-6" fill="#D2642C"/><polyline id="Fill-8" fill="#D2642C" points="24.4267145 29.0431095 13.654725 29.0431095 14.6681751 27.0519416 25.4401646 27.0519416 24.4267145 29.0431095"/><polyline id="Fill-9" fill="#D2642C" points="22.4084974 33.0259708 13 33.0259708 14.0674921 31.0345401 23.4759895 31.0345401 22.4084974 33.0259708"/></g></g></svg>

<svg width="100" height="60" xmlns="http://www.w3.org/2000/svg"><g fill="none" fill-rule="evenodd"><rect fill="#FFF" width="100" height="60" rx="4"/><path d="M86.117 22.405h-1.129c-.722 0-1.259.485-1.674 1.077l-1.117 1.592-.002.002-2.42 3.446-2.097-2.986c-.01-.015-.015-.028-.026-.044l-1.413-2.006c-.416-.591-.958-1.075-1.68-1.075h-1.047c-.723 0-1.191.483-.773 1.073l1.422 2.01.01.012 4.046 5.713v6.466c0 .725.591 1.316 1.314 1.315l.49-.001c.722 0 1.314-.595 1.314-1.319v-6.468l4.31-6.083c.013-.018.03-.035.043-.053l1.127-1.596c.418-.591.025-1.075-.698-1.075M38.954 30.18l4.06-3.907 2.87-2.762c.513-.494-.04-1.106-.743-1.106h-1.543c-.703 0-1.058.406-1.57.903l-3.006 2.913-.007.008-1.934 1.875v-2.126h-.008c.002-.028.008-.056.008-.084v-2.171c0-.724-.574-1.318-1.277-1.318h-.574c-.703 0-1.278.594-1.278 1.318v2.17c0 .029.006.057.008.085h-.008v11.705c0 .724.575 1.317 1.278 1.317h.574c.703 0 1.277-.593 1.277-1.317v-5.241l2.756 2.835h.003l2.712 2.793c.497.511.84.93 1.543.93h1.546c.703 0 1.002-.857.505-1.368l-7.192-7.451m30.565 1.624h-3.025c-.364 0-.548-.274-.412-.61l1.67-4.095c.137-.335.362-.335.5 0l1.678 4.096c.137.335-.048.61-.411.61zm6.076 5.552h.008l-5.274-13.113h-.003l-.247-.615c-.27-.673-1.085-1.224-1.812-1.224h-.524c-.726 0-1.541.551-1.809 1.225l-.244.614h-.01l-5.253 13.044h.002l-.198.49c-.272.672.101 1.222.828 1.222h1.175c.727 0 1.068-.556 1.32-1.235l.178-.477h.007l1.062-2.824h6.422l.087.227.065.134.947 2.532h.003l.152.408c.253.68.697 1.235 1.424 1.235h1.04c.727 0 1.098-.55.825-1.22l-.171-.423zM59.249 28.63a1.993 1.993 0 0 1-.536.774l.002-.002-.002.002c-.475.42-1.184.649-2.138.649h-1.723a.667.667 0 0 1-.67-.66V25.7c0-.361.301-.658.67-.658h1.723c.954 0 1.663.228 2.138.65.238.21.414.463.536.771.12.308.182.666.182 1.079 0 .417-.062.778-.182 1.088zm3.11 1.128c.27-.647.402-1.388.402-2.216 0-.822-.133-1.558-.401-2.202a4.158 4.158 0 0 0-1.207-1.633c-1.062-.874-2.61-1.302-4.578-1.302h-4.259c-.737 0-1.34.594-1.34 1.318v13.96c0 .724.603 1.317 1.34 1.317h.524c.738 0 1.341-.593 1.341-1.317v-4.994h2.394c1.968 0 3.516-.424 4.578-1.297a4.13 4.13 0 0 0 1.207-1.634zM28 34.66c-.44.55-.943.953-1.525 1.22-.58.267-1.245.403-2.005.403-.762 0-1.427-.136-2.01-.403-.586-.267-1.091-.673-1.535-1.225-.52-.643-.888-1.448-1.11-2.398l-.206-1.382a9.864 9.864 0 0 1-.015-1.374l.16-1.383c.206-1.081.598-1.987 1.171-2.7l-.002.005h.002c.444-.556.95-.959 1.535-1.225.583-.267 1.248-.403 2.01-.403.76 0 1.424.136 2.005.403.582.266 1.085.669 1.525 1.22.88 1.103 1.336 2.652 1.336 4.625 0 1.97-.456 3.514-1.336 4.617zm2.423-11.119c-1.485-1.636-3.506-2.468-5.953-2.463-2.459-.005-4.484.827-5.971 2.463-1.095 1.2-1.788 2.717-2.073 4.511v.005l-.133 1.413v.009c-.009.18-.02.363-.02.564 0 .298.014.586.031.866v.01l.18 1.413v.004c.314 1.658.98 3.076 2.015 4.21 1.487 1.627 3.512 2.459 5.97 2.454 2.448.005 4.469-.827 5.954-2.463 1.476-1.624 2.22-3.82 2.22-6.494 0-2.677-.741-4.879-2.22-6.502z" fill="#D2642C"/><path fill="#D2642C" d="M24.427 29.043H13.655l1.013-1.991H25.44l-1.013 1.991m-2.019 3.983H13l1.067-1.991h9.409l-1.068 1.991"/></g></svg>
